<?xml version="1.0" encoding="UTF-8"?>
<map version="1.10" tiledversion="1.11.2" orientation="orthogonal" renderorder="right-down" width="20" height="13" tilewidth="32" tileheight="32" infinite="0" nextlayerid="3" nextobjectid="1">
 <editorsettings>
  <export target="../../Documents/RPG-game/data/tileData/level1/map.csv" format="csv"/>
 </editorsettings>
 <tileset firstgid="1" source="TILED_files/tileset.tsx"/>
 <tileset firstgid="4" source="Ground.tsx"/>
 <tileset firstgid="208" source="Objects.tsx"/>
 <layer id="1" name="Ground" width="20" height="13">
  <data encoding="csv">
0,0,0,0,0,0,0,0,0,0,0,0,0,0,0,0,0,0,0,0,
0,0,0,0,0,0,0,0,0,0,0,0,0,0,0,0,0,0,0,0,
0,0,0,0,0,0,0,0,0,0,0,0,0,0,0,0,0,0,0,0,
0,0,0,0,0,0,0,0,0,0,0,0,0,0,0,0,0,0,0,0,
0,0,0,0,0,177,107,0,81,82,83,0,0,0,177,107,107,107,107,107,
0,0,0,0,177,194,141,0,0,0,0,0,0,0,194,124,124,124,124,124,
0,0,0,177,194,45,186,187,188,186,186,187,188,170,124,124,124,124,124,124,
191,191,191,194,45,45,200,204,204,203,204,206,205,201,124,124,124,124,124,124,
124,124,124,124,124,124,124,124,124,124,124,124,124,124,124,124,124,124,124,124,
124,124,124,124,124,124,124,124,124,124,124,124,124,124,124,124,124,124,124,124,
124,124,124,124,124,124,124,124,124,124,124,124,124,124,124,124,124,124,124,124,
124,124,124,124,124,124,124,124,124,124,124,124,124,124,124,124,124,124,124,124,
124,124,124,124,124,124,124,124,124,124,124,124,124,124,124,124,124,124,124,124
</data>
 </layer>
 <layer id="2" name="Detail" width="20" height="13">
  <data encoding="csv">
0,0,0,0,0,0,0,0,0,0,0,0,0,0,0,0,0,0,0,0,
0,0,0,0,0,0,0,0,0,0,0,0,0,0,0,0,0,0,0,0,
0,0,0,0,0,0,0,0,0,0,0,0,0,0,0,0,0,0,0,0,
0,0,0,0,0,0,0,0,0,0,0,0,0,0,0,469,470,0,0,0,
0,0,0,0,0,0,0,0,0,0,222,0,0,0,0,509,510,0,0,0,
0,0,0,0,0,0,0,0,0,0,262,0,0,0,0,0,0,0,0,455,
553,554,555,0,455,0,0,0,0,0,302,0,0,0,0,0,0,0,0,495,
593,594,595,0,495,0,0,0,0,0,0,0,0,0,0,0,494,0,0,535,
0,455,0,0,535,0,0,0,455,0,494,0,0,0,0,0,534,0,0,0,
0,495,0,0,0,0,494,0,495,0,534,0,0,0,494,0,0,0,0,0,
0,535,0,0,0,0,534,0,535,0,0,0,0,0,534,0,0,0,0,0,
0,0,0,0,0,0,0,0,0,0,0,0,0,0,0,0,0,0,0,0,
0,0,0,0,0,0,0,0,0,0,0,0,0,0,0,0,0,0,0,0
</data>
 </layer>
</map>
