<?xml version="1.0" encoding="UTF-8"?>
<map version="1.10" tiledversion="1.11.2" orientation="orthogonal" renderorder="right-down" width="26" height="26" tilewidth="16" tileheight="16" infinite="0" nextlayerid="5" nextobjectid="1">
 <editorsettings>
  <export target="../Documents/RPG-game/data/tileData/level3/map.csv" format="csv"/>
 </editorsettings>
 <tileset firstgid="1" source="Water.tsx"/>
 <tileset firstgid="5" source="Grass.tsx"/>
 <layer id="2" name="water" width="26" height="26">
  <data encoding="csv">
4,2,2,3,4,3,4,1,1,3,4,3,1,1,3,3,1,1,4,2,1,3,3,4,4,3,
4,3,1,2,4,4,4,3,1,1,3,3,4,1,2,1,2,2,4,3,1,2,3,2,2,3,
1,4,3,3,3,1,1,1,4,3,4,4,2,1,3,2,3,2,2,4,4,1,1,3,2,1,
4,4,4,4,2,3,1,3,3,2,3,3,3,4,3,2,2,1,1,3,2,3,1,4,4,1,
3,4,4,3,4,2,3,4,3,4,1,3,2,1,1,3,4,4,1,2,3,4,4,1,2,2,
2,1,2,1,3,3,4,3,1,3,3,2,1,4,4,1,2,2,4,3,2,2,1,4,2,1,
4,2,4,1,3,3,4,1,1,4,3,2,1,4,3,1,3,3,4,1,4,4,1,3,2,4,
2,4,3,3,3,1,2,2,2,2,4,3,3,4,1,2,2,1,2,3,1,2,3,1,3,2,
2,2,4,3,3,2,2,2,4,2,4,1,3,4,3,2,3,4,1,3,2,4,1,1,4,1,
4,1,2,4,1,2,1,3,2,3,1,1,3,2,2,4,4,4,2,3,2,3,2,4,1,1,
3,1,4,3,3,2,2,2,2,4,2,2,1,2,2,4,4,2,3,3,1,1,2,1,3,1,
3,1,4,1,2,4,2,4,2,3,4,3,4,3,3,2,3,1,2,4,4,3,1,2,2,1,
1,3,1,1,1,4,1,1,1,3,1,4,3,2,3,2,1,2,2,4,1,1,4,3,1,4,
4,2,4,1,2,4,2,2,1,3,4,1,3,4,1,4,1,3,3,4,1,4,1,4,4,3,
1,2,3,2,2,3,4,1,1,2,2,2,2,4,2,1,2,4,1,2,1,3,3,3,4,3,
3,3,2,4,1,2,3,3,1,1,2,1,4,2,2,3,1,4,1,3,1,3,2,1,1,4,
2,3,2,3,2,4,2,1,1,1,1,1,1,2,1,1,1,4,3,4,1,2,4,4,2,2,
4,3,1,3,3,1,4,4,2,3,1,2,2,2,1,4,2,3,4,4,4,2,3,1,1,2,
1,1,2,1,4,1,3,3,2,2,1,4,1,3,1,4,2,3,4,3,4,3,1,2,4,2,
1,3,4,1,1,3,2,4,4,2,4,3,2,2,1,2,4,3,3,3,2,3,1,2,1,3,
4,3,1,4,4,1,1,1,4,3,2,1,1,4,3,2,4,2,1,1,1,3,1,2,3,2,
2,4,3,4,2,1,2,4,1,1,1,1,2,2,4,2,3,2,2,1,2,2,4,2,1,2,
3,3,3,2,1,3,1,4,1,1,2,1,1,2,2,4,4,2,3,4,1,1,1,2,1,4,
1,1,4,1,2,2,4,1,3,3,4,4,1,4,1,4,1,3,4,3,2,4,3,1,1,1,
1,4,2,2,2,2,1,4,3,4,1,3,1,3,1,3,4,4,4,1,1,3,3,4,2,2,
4,3,2,1,2,4,4,1,2,1,4,1,4,1,3,4,4,3,3,1,3,4,2,3,4,4
</data>
 </layer>
 <layer id="3" name="grass" width="26" height="26">
  <data encoding="csv">
0,0,0,0,0,0,0,0,0,0,0,0,0,0,0,0,0,0,0,0,0,0,0,0,0,0,
0,0,0,0,0,0,0,0,0,0,0,0,0,0,0,0,0,0,0,0,0,0,0,0,0,0,
0,0,0,0,0,0,0,0,0,0,0,0,0,0,0,0,0,0,0,0,0,0,0,0,0,0,
0,0,0,0,0,0,0,9,6,6,6,6,6,6,6,7,0,0,0,0,0,0,0,0,0,0,
0,0,0,0,0,0,0,16,71,64,17,65,60,71,63,18,0,0,0,0,0,0,0,0,0,0,
0,0,0,0,0,0,0,16,60,17,17,65,75,71,61,32,6,6,7,0,0,0,0,0,0,0,
0,0,0,0,0,0,0,27,22,73,62,63,65,61,71,74,75,62,18,0,0,0,0,0,0,0,
0,0,0,0,0,0,9,11,33,60,65,62,62,63,63,73,73,64,32,6,7,0,0,0,0,0,
0,0,0,0,0,0,16,72,75,71,72,71,64,60,63,60,75,76,17,62,18,0,0,0,0,0,
0,0,0,0,0,0,16,60,74,71,64,65,60,63,63,74,73,71,60,60,18,0,0,0,0,0,
0,0,0,0,0,0,16,17,64,65,73,61,72,64,61,65,75,65,75,17,18,0,0,0,0,0,
0,0,0,0,0,0,16,17,62,73,71,62,76,61,71,65,62,73,75,74,18,0,0,0,0,0,
0,0,0,0,0,0,16,17,65,61,63,65,64,74,75,17,60,65,62,72,18,0,0,0,0,0,
0,0,0,0,0,0,16,60,73,61,62,64,64,17,74,72,64,64,65,76,18,0,0,0,0,0,
0,0,0,0,0,0,16,76,63,17,72,76,75,64,63,60,64,76,64,21,29,0,0,0,0,0,
0,0,0,0,0,0,16,17,72,61,73,76,64,72,76,63,72,64,60,18,0,0,0,0,0,0,
0,0,0,0,0,9,33,61,61,76,76,72,75,71,62,64,71,64,62,18,0,0,0,0,0,0,
0,0,0,0,0,16,64,64,62,71,71,17,60,65,75,60,72,76,74,18,0,0,0,0,0,0,
0,0,0,0,0,16,73,61,73,61,61,74,61,71,61,62,21,28,28,29,0,0,0,0,0,0,
0,0,0,0,0,16,61,71,71,75,71,76,62,74,75,17,18,0,0,0,0,0,0,0,0,0,
0,0,0,0,0,27,22,71,73,17,60,72,72,65,62,64,18,0,0,0,0,0,0,0,0,0,
0,0,0,0,0,0,27,22,73,17,21,28,22,64,73,73,18,0,0,0,0,0,0,0,0,0,
0,0,0,0,0,0,0,27,28,28,29,0,27,28,28,28,29,0,0,0,0,0,0,0,0,0,
0,0,0,0,0,0,0,0,0,0,0,0,0,0,0,0,0,0,0,0,0,0,0,0,0,0,
0,0,0,0,0,0,0,0,0,0,0,0,0,0,0,0,0,0,0,0,0,0,0,0,0,0,
0,0,0,0,0,0,0,0,0,0,0,0,0,0,0,0,0,0,0,0,0,0,0,0,0,0
</data>
 </layer>
 <layer id="4" name="solidCollision" width="26" height="26">
  <data encoding="csv">
0,0,0,0,0,0,0,0,0,0,0,0,0,0,0,0,0,0,0,0,0,0,0,0,0,0,
0,0,0,0,0,0,0,0,0,0,0,0,0,0,0,0,0,0,0,0,0,0,0,0,0,0,
0,0,0,0,0,0,0,0,0,0,0,0,0,0,0,0,0,0,0,0,0,0,0,0,0,0,
0,0,0,0,0,0,0,17,17,17,17,17,17,17,17,17,0,0,0,0,0,0,0,0,0,0,
0,0,0,0,0,0,0,17,0,0,0,0,0,0,0,17,0,0,0,0,0,0,0,0,0,0,
0,0,0,0,0,0,0,17,0,0,0,0,0,0,0,17,17,17,17,0,0,0,0,0,0,0,
0,0,0,0,0,0,0,17,17,0,0,0,0,0,0,0,0,0,17,0,0,0,0,0,0,0,
0,0,0,0,0,0,17,17,17,0,0,0,0,0,0,0,0,0,17,17,17,0,0,0,0,0,
0,0,0,0,0,0,17,0,0,0,0,0,0,0,0,0,0,0,0,0,17,0,0,0,0,0,
0,0,0,0,0,0,17,0,0,0,0,0,0,0,0,0,0,0,0,0,17,0,0,0,0,0,
0,0,0,0,0,0,17,0,0,0,0,0,0,0,0,0,0,0,0,0,17,0,0,0,0,0,
0,0,0,0,0,0,17,0,0,0,0,0,0,0,0,0,0,0,0,0,17,0,0,0,0,0,
0,0,0,0,0,0,17,0,0,0,0,0,0,0,0,0,0,0,0,0,17,0,0,0,0,0,
0,0,0,0,0,0,17,0,0,0,0,0,0,0,0,0,0,0,0,0,17,0,0,0,0,0,
0,0,0,0,0,0,17,0,0,0,0,0,0,0,0,0,0,0,0,17,17,0,0,0,0,0,
0,0,0,0,0,0,17,0,0,0,0,0,0,0,0,0,0,0,0,17,0,0,0,0,0,0,
0,0,0,0,0,17,17,0,0,0,0,0,0,0,0,0,0,0,0,17,0,0,0,0,0,0,
0,0,0,0,0,17,0,0,0,0,0,0,0,0,0,0,0,0,0,17,0,0,0,0,0,0,
0,0,0,0,0,17,0,0,0,0,0,0,0,0,0,0,17,17,17,17,0,0,0,0,0,0,
0,0,0,0,0,17,0,0,0,0,0,0,0,0,0,0,17,0,0,0,0,0,0,0,0,0,
0,0,0,0,0,17,17,0,0,0,0,0,0,0,0,0,17,0,0,0,0,0,0,0,0,0,
0,0,0,0,0,0,17,17,0,0,17,17,17,0,0,0,17,0,0,0,0,0,0,0,0,0,
0,0,0,0,0,0,0,17,17,17,17,0,17,17,17,17,17,0,0,0,0,0,0,0,0,0,
0,0,0,0,0,0,0,0,0,0,0,0,0,0,0,0,0,0,0,0,0,0,0,0,0,0,
0,0,0,0,0,0,0,0,0,0,0,0,0,0,0,0,0,0,0,0,0,0,0,0,0,0,
0,0,0,0,0,0,0,0,0,0,0,0,0,0,0,0,0,0,0,0,0,0,0,0,0,0
</data>
 </layer>
</map>
