<?xml version="1.0" encoding="UTF-8"?>
<map version="1.10" tiledversion="1.11.2" orientation="orthogonal" renderorder="right-down" width="26" height="13" tilewidth="16" tileheight="16" infinite="0" nextlayerid="5" nextobjectid="1">
 <editorsettings>
  <export target="../Documents/RPG-game/data/tileData/level3/map.csv" format="csv"/>
 </editorsettings>
 <tileset firstgid="1" source="Water.tsx"/>
 <tileset firstgid="5" source="Grass.tsx"/>
 <layer id="2" name="water" width="26" height="13">
  <data encoding="csv">
4,2,2,3,4,3,4,1,1,3,4,3,1,1,3,3,1,1,4,2,1,3,3,4,4,3,
3,4,3,1,1,3,2,1,4,2,1,1,1,1,2,3,3,2,2,3,2,1,1,2,1,2,
3,1,1,1,2,1,3,3,4,4,2,4,1,4,4,3,2,3,2,2,3,3,4,1,2,3,
4,1,3,4,1,4,4,4,4,1,2,4,3,1,2,3,4,4,2,3,3,4,1,3,3,3,
4,3,3,4,3,3,1,2,4,1,3,3,1,4,1,4,1,3,1,1,1,3,1,1,2,2,
1,4,2,2,2,3,2,4,2,4,1,4,4,2,3,2,4,2,4,1,4,3,4,1,2,4,
4,4,2,1,2,2,3,4,1,1,3,3,3,4,3,3,2,2,3,1,4,4,2,4,1,2,
4,4,2,2,2,2,4,3,1,2,1,2,4,2,4,2,3,4,2,4,3,3,2,1,3,3,
2,1,4,1,1,1,2,2,2,1,1,2,3,3,2,2,1,2,3,1,3,4,2,4,2,3,
2,3,3,4,1,4,4,3,1,4,1,4,4,1,2,3,2,4,2,4,2,1,3,4,4,3,
4,4,4,1,4,2,2,4,4,1,1,2,1,2,1,3,2,1,1,3,4,4,1,4,2,2,
3,1,2,4,1,1,4,4,4,1,2,2,3,1,3,1,4,4,2,2,1,3,4,1,4,2,
2,1,3,1,1,4,2,4,3,2,2,3,1,2,1,4,3,2,4,4,4,4,2,3,3,4
</data>
 </layer>
 <layer id="3" name="grass" width="26" height="13" opacity="0.31">
  <data encoding="csv">
0,0,0,0,0,0,0,0,0,0,0,0,0,0,0,0,0,0,0,0,0,0,0,0,0,0,
0,0,0,0,0,0,0,0,0,0,0,0,0,0,0,9,6,6,6,7,0,0,0,0,0,0,
0,0,0,0,0,0,0,0,0,9,6,6,6,6,6,33,65,62,61,18,0,0,0,0,0,0,
0,0,0,0,0,0,0,0,9,33,75,60,74,73,62,17,73,75,65,18,0,0,0,0,0,0,
0,0,0,0,0,0,0,0,16,63,74,71,72,60,73,64,74,60,75,32,7,0,0,0,0,0,
0,0,0,0,0,0,0,0,16,73,64,64,64,73,65,64,62,72,60,74,32,7,0,0,0,0,
0,0,0,0,0,0,0,0,16,17,75,72,71,17,74,74,64,76,65,63,65,18,0,0,0,0,
0,0,0,0,0,0,0,9,33,60,61,76,74,17,60,73,74,61,75,60,76,18,0,0,0,0,
0,0,0,0,0,0,0,16,63,62,76,65,72,64,71,75,62,63,60,71,21,29,0,0,0,0,
0,0,0,0,0,0,0,16,71,75,73,63,64,64,72,17,62,17,76,76,18,0,0,0,0,0,
0,0,0,0,0,0,0,27,22,74,75,17,60,73,76,76,62,21,28,28,29,0,0,0,0,0,
0,0,0,0,0,0,0,0,27,28,28,28,28,28,28,28,28,29,0,0,0,0,0,0,0,0,
0,0,0,0,0,0,0,0,0,0,0,0,0,0,0,0,0,0,0,0,0,0,0,0,0,0
</data>
 </layer>
 <layer id="4" name="solidCollision" width="26" height="13">
  <data encoding="csv">
0,0,0,0,0,0,0,0,0,0,0,0,0,0,0,0,0,0,0,0,0,0,0,0,0,0,
0,0,0,0,0,0,0,0,0,0,0,0,0,0,17,17,17,17,17,17,0,0,0,0,0,0,
0,0,0,0,0,0,0,0,17,17,17,17,17,17,0,0,0,0,0,17,0,0,0,0,0,0,
0,0,0,0,0,0,0,0,17,0,0,0,0,0,0,0,0,0,0,17,0,0,0,0,0,0,
0,0,0,0,0,0,0,0,17,0,0,0,0,0,0,0,0,0,0,0,17,0,0,0,0,0,
0,0,0,0,0,0,0,0,17,0,0,0,0,0,0,0,0,0,0,0,0,17,0,0,0,0,
0,0,0,0,0,0,0,0,17,0,0,0,0,0,0,0,0,0,0,0,0,17,0,0,0,0,
0,0,0,0,0,0,0,17,0,0,0,0,0,0,0,0,0,0,0,0,0,17,0,0,0,0,
0,0,0,0,0,0,0,17,0,0,0,0,0,0,0,0,0,0,0,0,0,17,0,0,0,0,
0,0,0,0,0,0,0,17,0,0,0,0,0,0,0,0,0,0,0,0,17,0,0,0,0,0,
0,0,0,0,0,0,0,17,0,0,0,0,0,0,0,0,0,0,17,17,17,0,0,0,0,0,
0,0,0,0,0,0,0,0,17,17,17,17,17,17,17,17,17,17,0,0,0,0,0,0,0,0,
0,0,0,0,0,0,0,0,0,0,0,0,0,0,0,0,0,0,0,0,0,0,0,0,0,0
</data>
 </layer>
</map>
